X: 43473
T: Yellow Horse, The
R: jig
M: 6/8
K: Gmajor
|:=f3 e2d|ege edB|d2e =fed|eg^f g2a|
bab g2e|e/^f/ge edB|g^fg edA|B2d d2e:|
|:dBA G2d|BAd BAB|GDE GAB|Bdd ege|
dBA G2d|BAd Bde|gfg edA|B2d d2e:|

